src/objects/tool/2694.svg

<svg id="emoji" viewBox="0 0 72 72" xmlns="http://www.w3.org/2000/svg">
  <g id="grid">
    <path fill="#b3b3b3" d="M68,4V68H4V4H68m4-4H0V72H72V0Z"/>
    <path fill="none" stroke="#00a5ff" stroke-miterlimit="10" stroke-width="0.1" d="M12.923,10.9583H59.0769A1.9231,1.9231,0,0,1,61,12.8814V59.0352a1.9231,1.9231,0,0,1-1.9231,1.9231H12.9231A1.9231,1.9231,0,0,1,11,59.0352V12.8813a1.923,1.923,0,0,1,1.923-1.923Z"/>
    <rect x="16" y="4" rx="2.2537" width="40" height="64" fill="none" stroke="#00a5ff" stroke-miterlimit="10" stroke-width="0.1"/>
    <rect x="16" y="4" rx="2.2537" width="40" height="64" transform="translate(72 0) rotate(90)" fill="none" stroke="#00a5ff" stroke-miterlimit="10" stroke-width="0.1"/>
    <circle cx="36" cy="36" r="29" fill="none" stroke="#00a5ff" stroke-miterlimit="10" stroke-width="0.1"/>
  </g>
  <g id="color">
    <g id="_2694">
      <path fill="#9b9b9a" d="M29.8689,49.8881s3.8768-.1914,1.57-2.9351A27.3514,27.3514,0,0,1,21.46,41.6161s-3.6038,1.0922-.9827,3.2489A44.5205,44.5205,0,0,1,29.8689,49.8881Z"/>
      <path fill="#d0cfce" d="M43.91,13.2107a25.7734,25.7734,0,0,1-2.7051,9.5749L29.9145,44.6031a22.4062,22.4062,0,0,1-4.52-2.4173L37.2724,20.6822a25.7753,25.7753,0,0,1,6.4619-7.5657"/>
      <path fill="#9b9b9a" d="M18.326,55.9442a1.997,1.997,0,1,0,3.522,1.8837,88.1683,88.1683,0,0,0,3.8491-10.02L24.523,47.18A88.1637,88.1637,0,0,0,18.326,55.9442Z"/>
      <path fill="#9b9b9a" d="M51.5232,44.865c2.6211-2.1567-.9827-3.2489-.9827-3.2489a27.3514,27.3514,0,0,1-9.9791,5.3369c-2.3071,2.7437,1.57,2.9351,1.57,2.9351A44.5205,44.5205,0,0,1,51.5232,44.865Z"/>
      <path fill="#d0cfce" d="M29.2657,14.1165a25.7753,25.7753,0,0,1,6.4619,7.5657L47.6055,43.1858a22.4062,22.4062,0,0,1-4.52,2.4173L31.7947,23.7856A25.7734,25.7734,0,0,1,29.09,14.2107"/>
      <path fill="#9b9b9a" d="M53.674,55.9442a1.997,1.997,0,1,1-3.522,1.8837,88.1683,88.1683,0,0,1-3.8491-10.02L47.477,47.18A88.1637,88.1637,0,0,1,53.674,55.9442Z"/>
    </g>
  </g>
  <g id="line">
    <g id="_2694-2">
      <g>
        <path fill="none" stroke="#000" stroke-linecap="round" stroke-linejoin="round" stroke-width="2" d="M40.3417,46.5421h0a1.9971,1.9971,0,0,0,1.8836,3.5221"/>
        <path fill="none" stroke="#000" stroke-linecap="round" stroke-linejoin="round" stroke-width="2" d="M51.6174,45.0411a1.997,1.997,0,0,0-1.8836-3.522h0"/>
        <path fill="none" stroke="#000" stroke-linecap="round" stroke-linejoin="round" stroke-width="2" d="M51.6174,45.0411a22.1726,22.1726,0,0,0-9.3921,5.0231"/>
        <path fill="none" stroke="#000" stroke-linecap="round" stroke-linejoin="round" stroke-width="2" d="M40.3417,46.5421a22.1724,22.1724,0,0,0,9.3921-5.023"/>
      </g>
      <path fill="none" stroke="#000" stroke-linecap="round" stroke-linejoin="round" stroke-width="2" d="M53.674,55.9442a1.997,1.997,0,1,1-3.522,1.8837,88.1683,88.1683,0,0,1-3.8491-10.02L47.477,47.18A88.1637,88.1637,0,0,1,53.674,55.9442Z"/>
      <path fill="none" stroke="#000" stroke-linecap="round" stroke-linejoin="round" stroke-width="2" d="M28.2657,13.1165a25.7753,25.7753,0,0,1,6.4619,7.5657L46.9194,42.7728A22.4041,22.4041,0,0,1,42.4,45.19L30.7947,22.7856A25.7734,25.7734,0,0,1,28.09,13.2107"/>
      <g>
        <path fill="none" stroke="#000" stroke-linecap="round" stroke-linejoin="round" stroke-width="2" d="M29.7747,50.0642a1.9971,1.9971,0,0,0,1.8836-3.5221h0"/>
        <path fill="none" stroke="#000" stroke-linecap="round" stroke-linejoin="round" stroke-width="2" d="M22.2662,41.5191h0a1.997,1.997,0,1,0-1.8836,3.522"/>
        <path fill="none" stroke="#000" stroke-linecap="round" stroke-linejoin="round" stroke-width="2" d="M29.7747,50.0642a22.1726,22.1726,0,0,0-9.3921-5.0231"/>
        <path fill="none" stroke="#000" stroke-linecap="round" stroke-linejoin="round" stroke-width="2" d="M22.2662,41.5191a22.1724,22.1724,0,0,0,9.3921,5.023"/>
      </g>
      <g>
        <path fill="none" stroke="#000" stroke-linecap="round" stroke-linejoin="round" stroke-width="2" d="M37.7047,19.9549a30.83,30.83,0,0,1,6.03-6.8384"/>
        <path fill="none" stroke="#000" stroke-linecap="round" stroke-linejoin="round" stroke-width="2" d="M34.3432,36.0337,29.6005,45.19a22.4041,22.4041,0,0,1-4.52-2.4173l6.36-11.5234"/>
        <path fill="none" stroke="#000" stroke-linecap="round" stroke-linejoin="round" stroke-width="2" d="M43.91,13.2107a25.7734,25.7734,0,0,1-2.7051,9.5749l-.9124,1.7576"/>
      </g>
      <path fill="none" stroke="#000" stroke-linecap="round" stroke-linejoin="round" stroke-width="2" d="M18.326,55.9442a1.997,1.997,0,1,0,3.522,1.8837,88.1683,88.1683,0,0,0,3.8491-10.02L24.523,47.18A88.1637,88.1637,0,0,0,18.326,55.9442Z"/>
    </g>
  </g>
</svg>

<svg viewBox="0 0 72 72" xmlns="http://www.w3.org/2000/svg"><path fill="#b3b3b3" d="M68 4v64H4V4h64m4-4H0v72h72V0z"/><path fill="none" stroke="#00a5ff" stroke-miterlimit="10" stroke-width=".1" d="M12.923 10.958h46.154A1.923 1.923 0 0161 12.881v46.154a1.923 1.923 0 01-1.923 1.923H12.923A1.923 1.923 0 0111 59.035V12.881a1.923 1.923 0 011.923-1.923z"/><rect x="16" y="4" rx="2.254" width="40" height="64" fill="none" stroke="#00a5ff" stroke-miterlimit="10" stroke-width=".1"/><rect x="16" y="4" rx="2.254" width="40" height="64" transform="rotate(90 36 36)" fill="none" stroke="#00a5ff" stroke-miterlimit="10" stroke-width=".1"/><circle cx="36" cy="36" r="29" fill="none" stroke="#00a5ff" stroke-miterlimit="10" stroke-width=".1"/><g stroke-linecap="round" stroke-miterlimit="10" stroke-width="6" stroke="#fff" fill="none" stroke-linejoin="round"><path d="M40.342 46.542h0a1.997 1.997 0 001.883 3.522m9.392-5.023a1.997 1.997 0 00-1.883-3.522h0m1.883 3.522a22.173 22.173 0 00-9.392 5.023m-1.883-3.522a22.172 22.172 0 009.392-5.023"/><path d="M53.674 55.944a1.997 1.997 0 11-3.522 1.884 88.168 88.168 0 01-3.85-10.02l1.175-.628a88.164 88.164 0 016.197 8.764zM28.266 13.117a25.775 25.775 0 016.462 7.565l12.191 22.09A22.404 22.404 0 0142.4 45.19L30.795 22.786a25.773 25.773 0 01-2.705-9.575M29.775 50.064a1.997 1.997 0 001.883-3.522h0m-9.392-5.022h0a1.997 1.997 0 10-1.883 3.521m9.392 5.023a22.173 22.173 0 00-9.392-5.023m1.883-3.521a22.172 22.172 0 009.392 5.022M37.705 19.955a30.83 30.83 0 016.03-6.838m-9.392 22.917L29.6 45.19a22.404 22.404 0 01-4.52-2.417l6.36-11.524M43.91 13.21a25.773 25.773 0 01-2.705 9.576l-.913 1.757"/><path d="M18.326 55.944a1.997 1.997 0 103.522 1.884 88.168 88.168 0 003.85-10.02l-1.175-.628a88.164 88.164 0 00-6.197 8.764z"/></g><path fill="#9b9b9a" d="M29.869 49.888s3.877-.191 1.57-2.935a27.351 27.351 0 01-9.979-5.337s-3.604 1.092-.983 3.249a44.52 44.52 0 019.392 5.023z"/><path fill="#d0cfce" d="M43.91 13.21a25.773 25.773 0 01-2.705 9.576l-11.29 21.817a22.406 22.406 0 01-4.52-2.417l11.877-21.504a25.775 25.775 0 016.462-7.565"/><path fill="#9b9b9a" d="M18.326 55.944a1.997 1.997 0 103.522 1.884 88.168 88.168 0 003.85-10.02l-1.175-.628a88.164 88.164 0 00-6.197 8.764zm33.197-11.079c2.621-2.157-.983-3.249-.983-3.249a27.351 27.351 0 01-9.979 5.337c-2.307 2.744 1.57 2.935 1.57 2.935a44.52 44.52 0 019.392-5.023z"/><path fill="#d0cfce" d="M29.266 14.117a25.775 25.775 0 016.462 7.565l11.877 21.504a22.406 22.406 0 01-4.52 2.417l-11.29-21.817a25.773 25.773 0 01-2.705-9.575"/><path fill="#9b9b9a" d="M53.674 55.944a1.997 1.997 0 11-3.522 1.884 88.168 88.168 0 01-3.85-10.02l1.175-.628a88.164 88.164 0 016.197 8.764z"/><g><g fill="none" stroke="#000" stroke-linecap="round" stroke-linejoin="round" stroke-width="2"><path d="M40.342 46.542h0a1.997 1.997 0 001.883 3.522m9.392-5.023a1.997 1.997 0 00-1.883-3.522h0m1.883 3.522a22.173 22.173 0 00-9.392 5.023m-1.883-3.522a22.172 22.172 0 009.392-5.023"/><path d="M53.674 55.944a1.997 1.997 0 11-3.522 1.884 88.168 88.168 0 01-3.85-10.02l1.175-.628a88.164 88.164 0 016.197 8.764zM28.266 13.117a25.775 25.775 0 016.462 7.565l12.191 22.09A22.404 22.404 0 0142.4 45.19L30.795 22.786a25.773 25.773 0 01-2.705-9.575M29.775 50.064a1.997 1.997 0 001.883-3.522h0m-9.392-5.022h0a1.997 1.997 0 10-1.883 3.521m9.392 5.023a22.173 22.173 0 00-9.392-5.023m1.883-3.521a22.172 22.172 0 009.392 5.022M37.705 19.955a30.83 30.83 0 016.03-6.838m-9.392 22.917L29.6 45.19a22.404 22.404 0 01-4.52-2.417l6.36-11.524M43.91 13.21a25.773 25.773 0 01-2.705 9.576l-.913 1.757"/><path d="M18.326 55.944a1.997 1.997 0 103.522 1.884 88.168 88.168 0 003.85-10.02l-1.175-.628a88.164 88.164 0 00-6.197 8.764z"/></g></g></svg>
